X:1
T:Santa Claus Is Coming To Town
C:Fred Coots & Haven Gillespie
L:1/4
M:C
I:linebreak $
K:F
cS |:"F" A/B/ c c3/2 c/ |"Gm" d/e/ f f2 |"Am" A/B/ c c c |"Bb" d/c/ B B2 |$"Am" A c"Dm" F A |
"Gm" G B"C7" z E ||1"F" F4 |"Gm" z2"C7" c :|2$"F""_Fine" F4 | z2 f |][K:Bb]"Cm" g f"F7" =e f |
"Bb" d d"Bb6" z f |$"Cm" g f"F7" =e f |"Bb" d2"Bb6" z g ||[K:C]"Dm" a g"G7" ^f g |
"C" e e"C6" e e/f/ |$"Dm" g f"G7" e d |"C7" c2 z"_D.S. al 2nd end." c ||

